assets/img/braze_icons/backpack.svg

<svg fill="none" height="24" viewBox="0 0 24 24" width="24" xmlns="http://www.w3.org/2000/svg"><path clip-rule="evenodd" d="m7.67501 2h8.64999c.7663-.00001 1.3987-.00002 1.9147.04016.5356.0417 1.029.13114 1.4958.35597.8165.39317 1.4752 1.05191 1.8684 1.86834.2248.46686.3142.96018.3559 1.49581.0402.51599.0402 1.14845.0402 1.91474v.07997c0 1.03169 0 1.86385-.0525 2.53871-.0541.6947-.1683 1.306-.4427 1.8757-.1417.2944-.3111.5723-.5048.8306v4.8386c0 .5271 0 .9819-.0306 1.3564-.0323.3954-.1036.7886-.2964 1.167-.2876.5645-.7465 1.0234-1.311 1.311-.3784.1928-.7716.2641-1.167.2964-.3745.0306-.8293.0306-1.3564.0306h-9.67716c-.52714 0-.9819 0-1.35647-.0306-.39534-.0323-.78856-.1036-1.16694-.2964-.56449-.2876-1.02343-.7465-1.31105-1.311-.19279-.3784-.26411-.7716-.29641-1.167-.0306-.3745-.03059-.8293-.03057-1.3565v-4.8385c-.19374-.2583-.3631-.5362-.50484-.8306-.27435-.5697-.38854-1.181-.44263-1.8756-.05254-.67495-.05254-1.50711-.05253-2.53879v-.08003c-.00001-.76626-.00002-1.39872.04016-1.9147.0417-.53563.13114-1.02895.35597-1.49581.39317-.81643 1.05191-1.47517 1.86834-1.86834.46686-.22483.96018-.31427 1.49581-.35597.51598-.04018 1.14846-.04017 1.91473-.04016zm9.61879 12.9475c.6262-.0488 1.1848-.1464 1.7062-.3662v3.2187c0 .5766-.0008.9488-.0239 1.2322-.0222.2716-.0599.3723-.0851.4218-.0959.1882-.2488.3411-.437.437-.0495.0252-.1502.0629-.4218.0851-.2834.0231-.6556.0239-1.2322.0239h-9.6c-.57655 0-.94882-.0008-1.23216-.0239-.27166-.0222-.37238-.0599-.42183-.0851-.18816-.0959-.34114-.2488-.43701-.437-.0252-.0495-.06287-.1502-.08507-.4218-.02315-.2834-.02393-.6556-.02393-1.2322v-3.2187c.52139.2198 1.07999.3174 1.70625.3662.67491.0525 1.50707.0525 2.53877.0525h5.50998c1.0317 0 1.8638 0 2.5388-.0525zm-8.2938-5.9475c-.55228 0-1 .44772-1 1 0 .5523.44772 1 1 1h6c.5523 0 1-.4477 1-1 0-.55228-.4477-1-1-1z" fill="#801ed7" fill-rule="evenodd"/></svg>

<svg width="24" height="24" viewBox="0 0 24 24" fill="none" xmlns="http://www.w3.org/2000/svg">
<path fill-rule="evenodd" clip-rule="evenodd" d="M7.67501 2H16.325C17.0913 1.99999 17.7237 1.99998 18.2397 2.04016C18.7753 2.08186 19.2687 2.1713 19.7355 2.39613C20.552 2.7893 21.2107 3.44804 21.6039 4.26447C21.8287 4.73133 21.9181 5.22465 21.9598 5.76028C22 6.27627 22 6.90873 22 7.67502V7.75499C22 8.78668 22 9.61884 21.9475 10.2937C21.8934 10.9884 21.7792 11.5997 21.5048 12.1694C21.3631 12.4638 21.1937 12.7417 21 13V17.8386C21 18.3657 21 18.8205 20.9694 19.195C20.9371 19.5904 20.8658 19.9836 20.673 20.362C20.3854 20.9265 19.9265 21.3854 19.362 21.673C18.9836 21.8658 18.5904 21.9371 18.195 21.9694C17.8205 22 17.3657 22 16.8386 22H7.16144C6.6343 22 6.17954 22 5.80497 21.9694C5.40963 21.9371 5.01641 21.8658 4.63803 21.673C4.07354 21.3854 3.6146 20.9265 3.32698 20.362C3.13419 19.9836 3.06287 19.5904 3.03057 19.195C2.99997 18.8205 2.99998 18.3657 3 17.8385L3 13C2.80626 12.7417 2.6369 12.4638 2.49516 12.1694C2.22081 11.5997 2.10662 10.9884 2.05253 10.2938C1.99999 9.61885 1.99999 8.78669 2 7.75501V7.67498C1.99999 6.90872 1.99998 6.27626 2.04016 5.76028C2.08186 5.22465 2.1713 4.73133 2.39613 4.26447C2.7893 3.44804 3.44804 2.7893 4.26447 2.39613C4.73133 2.1713 5.22465 2.08186 5.76028 2.04016C6.27626 1.99998 6.90874 1.99999 7.67501 2ZM17.2938 14.9475C17.92 14.8987 18.4786 14.8011 19 14.5813V17.8C19 18.3766 18.9992 18.7488 18.9761 19.0322C18.9539 19.3038 18.9162 19.4045 18.891 19.454C18.7951 19.6422 18.6422 19.7951 18.454 19.891C18.4045 19.9162 18.3038 19.9539 18.0322 19.9761C17.7488 19.9992 17.3766 20 16.8 20H7.2C6.62345 20 6.25118 19.9992 5.96784 19.9761C5.69618 19.9539 5.59546 19.9162 5.54601 19.891C5.35785 19.7951 5.20487 19.6422 5.109 19.454C5.0838 19.4045 5.04613 19.3038 5.02393 19.0322C5.00078 18.7488 5 18.3766 5 17.8V14.5813C5.52139 14.8011 6.07999 14.8987 6.70625 14.9475C7.38116 15 8.21332 15 9.24502 15H14.755C15.7867 15 16.6188 15 17.2938 14.9475ZM9 9C8.44772 9 8 9.44772 8 10C8 10.5523 8.44772 11 9 11H15C15.5523 11 16 10.5523 16 10C16 9.44772 15.5523 9 15 9H9Z" fill="#801ED7"/>
</svg>
